X: 18
T: The New Opera Hat
R: jig
M: 6/8
L: 1/8
N: The 2nd part has an initial repeat, but no final repeat.
N: The tune works well in either 32-bar (AAB) or 48-bar (AABB) form.
Z: 2010 John Chambers <jc:trillian.mit.edu>
B: 19th century tune book collected by W.A. Cocks.
F: http://www.asaplive.com/archive/browse_by_collection.asp
N: The asaplive.com web site is complex, and links to its files don't usually work.
K: D
A |\
d2d def | A2A A2A | B2d c2e | d2f ecA |\
d2d def | A2A A2A | B2d c2e | d3- d2 :|
|: f |\
e2e efg | f2e d2f | e2e efg | f3  d2f |\
e2e efg | f2e d2f | e2d c2B | A2G F2E |
F2F GFG | A2A A2A | B2d c2e | d2f e2g |\
F3  GFG | A2A A2A | B2d c2e | d3- d2 |]


%%sep 5 1 500

